assets/spraw/zhp_harc_sim_2022/przyrodnicze/znawca_grzybow.svg

<svg xmlns="http://www.w3.org/2000/svg" viewBox="0 0 90.709 90.709"><path d="M45.354 88.874c-23.997 0-43.52-19.522-43.52-43.52s19.523-43.52 43.52-43.52 43.52 19.523 43.52 43.521-19.523 43.519-43.52 43.519z" fill="#194093"/><path d="M45.354 2.835c23.483 0 42.52 19.037 42.52 42.52s-19.037 42.52-42.52 42.52-42.52-19.037-42.52-42.52 19.037-42.52 42.52-42.52m0-2C20.806.835.834 20.806.834 45.355s19.971 44.52 44.52 44.52 44.52-19.971 44.52-44.52S69.903.835 45.354.835h0z" fill="#252e78"/><path d="M15.622 39.289c-.022-7.837 10.911-22.992 29.455-22.992 20.212 0 30.103 15.204 30.041 22.991 0 0-22.306-2-29.764-2-7.45.001-29.732 2.001-29.732 2.001z" fill-rule="evenodd" fill="#f8c409"/><path d="M73.827 36.701c-3.498-2.931-8.13-1.998-12.196-2.66-3.403-.567-6.757-2.51-11.666-2.51-5.315 0-8.739 2.51-26.055 2.51-8.165 0-13.803 7.481.284 10.034 3.279.615 7.356 1.081 11.858 1.507.066-.778.112-1.566.112-2.38 0-3.031 3.096-4.568 9.201-4.568s9.201 1.537 9.201 4.568c0 .799.044 1.59.106 2.376 4.496-.425 8.51-.89 11.781-1.503 9.076-1.607 10.021-5.199 7.374-7.374zm-22.261 6.501c0-1.045-3.101-1.568-6.201-1.568s-6.201.523-6.201 1.568c0 13.749-9.31 22.414-3.077 31.141 1.263 1.769 4.694 2.634 8.274 2.634 3.634 0 7.422-.892 9.25-2.634 6.89-6.568-2.045-17.392-2.045-31.141z" fill="#fff"/></svg>

<?xml version="1.0" encoding="iso-8859-1"?>
<!-- Generator: Adobe Illustrator 22.1.0, SVG Export Plug-In . SVG Version: 6.00 Build 0)  -->
<svg version="1.1" xmlns="http://www.w3.org/2000/svg" xmlns:xlink="http://www.w3.org/1999/xlink" x="0px" y="0px"
	 viewBox="0 0 90.709 90.709" style="enable-background:new 0 0 90.709 90.709;" xml:space="preserve">
<g id="ratownik-1">
	<g>
		<g>
			<path style="fill:#194093;" d="M45.354,88.874c-23.997,0-43.52-19.522-43.52-43.52S21.357,1.834,45.354,1.834
				s43.52,19.523,43.52,43.521S69.351,88.874,45.354,88.874z"/>
			<g>
				<path style="fill:#252E78;" d="M45.354,2.835c23.483,0,42.52,19.037,42.52,42.52s-19.037,42.52-42.52,42.52
					s-42.52-19.037-42.52-42.52S21.871,2.835,45.354,2.835 M45.354,0.835c-24.548,0-44.52,19.971-44.52,44.52
					s19.971,44.52,44.52,44.52s44.52-19.971,44.52-44.52S69.903,0.835,45.354,0.835L45.354,0.835z"/>
			</g>
		</g>
	</g>
</g>
<g id="Warstwa_4">
	<g>
		<path style="fill-rule:evenodd;clip-rule:evenodd;fill:#F8C409;" d="M15.622,39.289C15.6,31.452,26.533,16.297,45.077,16.297
			c20.212,0,30.103,15.204,30.041,22.991c0,0-22.306-2-29.764-2C37.904,37.289,15.622,39.289,15.622,39.289z"/>
		<g>
			<path style="fill:#FFFFFF;" d="M73.827,36.701c-3.498-2.931-8.13-1.998-12.196-2.66c-3.403-0.567-6.757-2.51-11.666-2.51
				c-5.315,0-8.739,2.51-26.055,2.51c-8.165,0-13.803,7.481,0.284,10.034c3.279,0.615,7.356,1.081,11.858,1.507
				c0.066-0.778,0.112-1.566,0.112-2.38c0-3.031,3.096-4.568,9.201-4.568c6.105,0,9.201,1.537,9.201,4.568
				c0,0.799,0.044,1.59,0.106,2.376c4.496-0.425,8.51-0.89,11.781-1.503C75.529,42.468,76.474,38.876,73.827,36.701z"/>
			<path style="fill:#FFFFFF;" d="M51.566,43.202c0-1.045-3.101-1.568-6.201-1.568c-3.101,0-6.201,0.523-6.201,1.568
				c0,13.749-9.31,22.414-3.077,31.141c1.263,1.769,4.694,2.634,8.274,2.634c3.634,0,7.422-0.892,9.25-2.634
				C60.501,67.775,51.566,56.951,51.566,43.202z"/>
		</g>
	</g>
</g>
</svg>
